to mycube
square 100
rt 30
fd 50
lt 30
square 100
penup
fd 100
pendown
rt 210
fd 50
penup
lt 120
fd 100
pendown
lt 60
fd 50
penup
rt 150
fd 100
pendown
rt 30
fd 50
end

to square :size
REPEAT 4 [FD :size RT 90]
end

